svgs/thin/bus.svg

<svg xmlns="http://www.w3.org/2000/svg" viewBox="0 0 576 512"><!--! Font Awesome Pro 6.1.1 by @fontawesome - https://fontawesome.com License - https://fontawesome.com/license (Commercial License) Copyright 2022 Fonticons, Inc. --><path d="M352 48C356.4 48 360 51.58 360 56C360 60.42 356.4 64 352 64H224C219.6 64 216 60.42 216 56C216 51.58 219.6 48 224 48H352zM200 352C200 374.1 182.1 392 160 392C137.9 392 120 374.1 120 352C120 329.9 137.9 312 160 312C182.1 312 200 329.9 200 352zM160 376C173.3 376 184 365.3 184 352C184 338.7 173.3 328 160 328C146.7 328 136 338.7 136 352C136 365.3 146.7 376 160 376zM376 352C376 329.9 393.9 312 416 312C438.1 312 456 329.9 456 352C456 374.1 438.1 392 416 392C393.9 392 376 374.1 376 352zM416 328C402.7 328 392 338.7 392 352C392 365.3 402.7 376 416 376C429.3 376 440 365.3 440 352C440 338.7 429.3 328 416 328zM70.47 69.67C93.19 41.38 160.6 0 288 0C424.6 0 484.4 41.27 505.8 69.78C510.5 75.93 512 83.24 512 89.88V392C512 414.3 498.9 433.6 480 442.6V504C480 508.4 476.4 512 472 512C467.6 512 464 508.4 464 504V447.4C461.4 447.8 458.7 448 456 448H120C117.3 448 114.6 447.8 112 447.4V504C112 508.4 108.4 512 104 512C99.58 512 96 508.4 96 504V442.6C77.08 433.6 64 414.3 64 392V89.88C64 83.27 65.53 75.81 70.47 69.67zM288 16C163.5 16 101.6 56.46 82.94 79.69C81.02 82.08 80 85.54 80 89.88V96H496V89.88C496 85.57 494.1 81.98 493 79.38C475.7 56.35 421.7 16 287.1 16H288zM280 256V112H80V256H280zM296 256H496V112H296V256zM120 432H456C478.1 432 496 414.1 496 392V272H80V392C80 414.1 97.91 432 120 432zM0 136C0 122.7 10.75 112 24 112H32C36.42 112 40 115.6 40 120C40 124.4 36.42 128 32 128H24C19.58 128 16 131.6 16 136V248C16 252.4 19.58 256 24 256H32C36.42 256 40 259.6 40 264C40 268.4 36.42 272 32 272H24C10.75 272 0 261.3 0 248V136zM552 112C565.3 112 576 122.7 576 136V248C576 261.3 565.3 272 552 272H544C539.6 272 536 268.4 536 264C536 259.6 539.6 256 544 256H552C556.4 256 560 252.4 560 248V136C560 131.6 556.4 128 552 128H544C539.6 128 536 124.4 536 120C536 115.6 539.6 112 544 112H552z"/></svg>

<svg xmlns="http://www.w3.org/2000/svg" viewBox="0 0 576 512"><!--! Font Awesome Pro 6.4.2 by @fontawesome - https://fontawesome.com License - https://fontawesome.com/license (Commercial License) Copyright 2023 Fonticons, Inc. --><path d="M288 16C163.5 16 101.6 56.5 82.9 79.7C81 82.1 80 85.5 80 89.9V96H496l0-6.1c0-4.3-1-7.9-3-10.5C475.7 56.4 421.7 16 288 16zM80 256H280V112H80V256zm216 0H496V112H296V256zM80 392c0 22.1 17.9 40 40 40l0 0 56 0h16l178.3 0 13.7 0h16l56 0c0 0 0 0 .1 0c22.1 0 39.9-17.9 39.9-40l0-120H80V392zm304 56l-13.7 0L192 448v32c0 17.7-14.3 32-32 32H128c-17.7 0-32-14.3-32-32V448v-5.4c-18.9-9-32-28.3-32-50.6V89.9c0-6.6 1.5-14.1 6.5-20.2C93.2 41.4 160.6 0 288 0C424.6 0 484.4 41.3 505.8 69.8c4.6 6.2 6.2 13.5 6.2 20.1V392c0 22.3-13.1 41.6-32 50.6V448v32c0 17.7-14.3 32-32 32H416c-17.7 0-32-14.3-32-32V448zm72.1 0c0 0 0 0-.1 0l-56 0v32c0 8.8 7.2 16 16 16h32c8.8 0 16-7.2 16-16V448h-7.9zM120 448l-.1 0H112v32c0 8.8 7.2 16 16 16h32c8.8 0 16-7.2 16-16V448l-56 0zm0-96a40 40 0 1 1 80 0 40 40 0 1 1 -80 0zm40 24a24 24 0 1 0 0-48 24 24 0 1 0 0 48zm256-64a40 40 0 1 1 0 80 40 40 0 1 1 0-80zm24 40a24 24 0 1 0 -48 0 24 24 0 1 0 48 0zM224 48H352c4.4 0 8 3.6 8 8s-3.6 8-8 8H224c-4.4 0-8-3.6-8-8s3.6-8 8-8zM0 136c0-13.3 10.7-24 24-24h8c4.4 0 8 3.6 8 8s-3.6 8-8 8H24c-4.4 0-8 3.6-8 8V248c0 4.4 3.6 8 8 8h8c4.4 0 8 3.6 8 8s-3.6 8-8 8H24c-13.3 0-24-10.7-24-24V136zm552-24c13.3 0 24 10.7 24 24V248c0 13.3-10.7 24-24 24h-8c-4.4 0-8-3.6-8-8s3.6-8 8-8h8c4.4 0 8-3.6 8-8V136c0-4.4-3.6-8-8-8h-8c-4.4 0-8-3.6-8-8s3.6-8 8-8h8z"/></svg>
